assets/img/braze_icons/trend-up-01.svg

<svg fill="none" height="24" viewBox="0 0 24 24" width="24" xmlns="http://www.w3.org/2000/svg"><path d="m15 6c-.5523 0-1 .44772-1 1s.4477 1 1 1h4.5858l-6.1615 6.1615c-.2097.2097-.325.3239-.4142.3996l-.0101.0085-.0101-.0085c-.0892-.0757-.2045-.1899-.4142-.3996l-2.75978-2.7598c-.17842-.1785-.35222-.3523-.51143-.4875-.17485-.1484-.39674-.308-.68646-.4021-.40168-.1305-.83438-.1305-1.23606 0-.28972.0941-.51161.2537-.68646.4021-.15921.1352-.33299.309-.51142.4875l-4.8912 4.8912c-.390521.3905-.390521 1.0237 0 1.4142.39053.3905 1.02369.3905 1.41422 0l4.86863-4.8686c.20967-.2097.32495-.3239.41413-.3996l.01013-.0085.01013.0085c.08918.0757.20446.1899.41413.3996l2.75984 2.7598c.1784.1785.3522.3523.5114.4875.1749.1484.3967.308.6865.4021.4017.1305.8343.1305 1.236 0 .2898-.0941.5116-.2537.6865-.4021.1592-.1352.333-.309.5114-.4875l6.1841-6.18409v4.58579c0 .5523.4477 1 1 1s1-.4477 1-1v-7c0-.55228-.4477-1-1-1z" fill="#801ed7"/></svg>

<svg width="24" height="24" viewBox="0 0 24 24" fill="none" xmlns="http://www.w3.org/2000/svg">
<path d="M15 6C14.4477 6 14 6.44772 14 7C14 7.55228 14.4477 8 15 8H19.5858L13.4243 14.1615C13.2146 14.3712 13.0993 14.4854 13.0101 14.5611L13 14.5696L12.9899 14.5611C12.9007 14.4854 12.7854 14.3712 12.5757 14.1615L9.81592 11.4017C9.6375 11.2232 9.4637 11.0494 9.30449 10.9142C9.12964 10.7658 8.90775 10.6062 8.61803 10.5121C8.21635 10.3816 7.78365 10.3816 7.38197 10.5121C7.09225 10.6062 6.87036 10.7658 6.69551 10.9142C6.5363 11.0494 6.36252 11.2232 6.18409 11.4017L1.29289 16.2929C0.902369 16.6834 0.902369 17.3166 1.29289 17.7071C1.68342 18.0976 2.31658 18.0976 2.70711 17.7071L7.57574 12.8385C7.78541 12.6288 7.90069 12.5146 7.98987 12.4389L8 12.4304L8.01013 12.4389C8.09931 12.5146 8.21459 12.6288 8.42426 12.8385L11.1841 15.5983C11.3625 15.7768 11.5363 15.9506 11.6955 16.0858C11.8704 16.2342 12.0922 16.3938 12.382 16.4879C12.7837 16.6184 13.2163 16.6184 13.618 16.4879C13.9078 16.3938 14.1296 16.2342 14.3045 16.0858C14.4637 15.9506 14.6375 15.7768 14.8159 15.5983L21 9.41421V14C21 14.5523 21.4477 15 22 15C22.5523 15 23 14.5523 23 14V7C23 6.44772 22.5523 6 22 6H15Z" fill="#801ED7"/>
</svg>
